X:1
T:Newton Ferns, 87.87
T:Newton Ferns, 87.87
T:Samuel Smith, 1865
T:Public Domain Courtesy of the Cyber Hymnal™
C:Samuel Smith, 1865
Z:Public Domain
Z:Courtesy of the Cyber Hymnal™
%%score ( 1 2 ) ( 3 4 )
L:1/8
Q:1/4=108
M:4/4
K:F
V:1 treble 
V:2 treble 
V:3 bass 
V:4 bass 
V:1
 [Fc]2 [FA]2 [Fd]2 [FB]2 | [FG]2 [Ec]2 [FA]2 [CF]2 | [Ff]2 [Fe]2 [Fd]2 [^Fc]2 | [GB]2 [DG]2 [CE]4 | %4
 [CA]2 [CF]2 [CD]2 [B,D]2 | [DB]2 [DG]2 [DE]2 [CE]2 | [Cc]2 [_Ec]2 [DB]2 D2 | [CF]2 [CE]2 [CF]4 |] %8
V:2
 x8 | x8 | x8 | x8 | x8 | x8 | x6 D2 | x8 |] %8
V:3
 [F,A,]2 [F,C]2 [B,,B,]2 [B,,D]2 | [C,C]2 [C,C]2 [F,C]2 [F,A,]2 | [F,A,]2 [A,C]2 B,2 [A,C]2 | %3
 [G,D]2 [B,,B,]2 [C,G,]4 | [F,,F,]2 [A,,F,]2 [B,,F,]2 F,2 | [G,,G,]2 [B,,G,]2 [C,G,]2 G,2 | %6
 [A,,F,]2 [A,,F,]2 [B,,F,]2 [B,,B,]2 | [C,A,]2 [C,G,]2 [F,A,]4 |] %8
V:4
 x8 | x8 | x4 B,2 x2 | x8 | x6 (B,,A,,) | x6 (C,B,,) | x8 | x8 |] %8

